X: 2
T: The Mossy Banks
R: reel
M: 4/4
L: 1/8
K: Gmaj
gedB G3A|BAGB AE~E2|DEGA Bddg|edgd egga|gedB G3A|BAGB AE~E2|DEGA Bdge|1dBAG EGG2:|2dBAG EGGD:|:G3B AEGE|DEGG AGEA|Bd~d2 edge|dBGA BAAB|G3B AEGE|DEGG AGEA|Bd~d2 gedB|A2GA BGG2:|:g2dg egdg|~g2bg agef|g2dg egdB|A2GA BGG2|g2dg egdg|~g2bg aged|~g3a g2ed|e/f/gfa gdef:|


Tune 1846	Setting 29668

